!!!OTL: Die dienende Schwester.
!!!OTL-incipit: Es wohnt ein Kaiser wohl an dem Rhein,
!!!ARE: Europa, Mitteleuropa, Deutschland (BRD), Rheinland
!!!YOR: 4, S. 116
!!    ????
!!!SCT: Q0075n
!!!TXL: @@DE
!!!YEM: Copyright 1995, estate of Helmut Schaffrath.
**kern	**text
*ICvox	*
*M3/4	*
*k[b-]	*
*F:	*
!LO:TX:a:t=Gehend	!
!LO:TX:a:t=543 Rheinland	!
{8a	Es
8a	wohnt
8b-	ein
=1	=1
4cc	Kai-
8a	-ſer
8a	wohl
8g	an
8a	dem
=2	=2
4g	Rhein,
8r}	.
{8g	der
8g	hat
8a	drei
=3	=3
4b-	ſchö-
4g	-ne
8a	Töchter-
8cc	.
=4	=4
4f	-lein,
4r}	.
{8a	Töchter-
8b-	.
=5	=5
4cc	-lein,
8r	.
8cc	der
8cc	hat
8ff	drei
=6	=6
(8ff	ſchö-
8a)	.
4a	-ne
8g	Töchter-
8g	.
=7	=7
4f	-lein.
8r}	.
==	==
!!!AGN: Ballade, Adelige als Dienstmagd, Tod; Kinder - Spiel, Tanz
!! Einschiebsel am Anfang der dritten Zeile.
!!!ONB: ESAC (Essen Associative Code) Database: BALLADE
!!!AMT: simple triple
!!!AIN: vox
!!!EED: Helmut Schaffrath
!!!EEV: 1.0
!!!source: Deutsche Volkslieder mit ihren Melodien. Herausgegeben vom Deutschen Volksliedarchiv. Vierter Band. Berlin 1959.
!!!page: 116
!!!ENC: Anna Maria Matuszewska
!!!EEV: 2025/02/27
*-	*-
